Numix-GalliumOS/16/status/pamac-search.svg

<?xml version="1.0" encoding="UTF-8" standalone="no"?>
<svg
   xmlns:dc="http://purl.org/dc/elements/1.1/"
   xmlns:cc="http://creativecommons.org/ns#"
   xmlns:rdf="http://www.w3.org/1999/02/22-rdf-syntax-ns#"
   xmlns:svg="http://www.w3.org/2000/svg"
   xmlns="http://www.w3.org/2000/svg"
   xmlns:sodipodi="http://sodipodi.sourceforge.net/DTD/sodipodi-0.dtd"
   xmlns:inkscape="http://www.inkscape.org/namespaces/inkscape"
   width="16"
   height="16"
   viewBox="0 0 16 16"
   id="svg2"
   version="1.1"
   inkscape:version="0.91 r"
   sodipodi:docname="pamac-search.svg">
  <metadata
     id="metadata10">
    <rdf:RDF>
      <cc:Work
         rdf:about="">
        <dc:format>image/svg+xml</dc:format>
        <dc:type
           rdf:resource="http://purl.org/dc/dcmitype/StillImage" />
        <dc:title />
      </cc:Work>
    </rdf:RDF>
  </metadata>
  <defs
     id="defs8">
    <clipPath
       id="clipPath-408241621">
      <g
         transform="translate(0,-1004.3622)"
         id="g3616">
        <path
           style="fill:#1890d0"
           inkscape:connector-curvature="0"
           d="m -24,13 c 0,1.105 -0.672,2 -1.5,2 -0.828,0 -1.5,-0.895 -1.5,-2 0,-1.105 0.672,-2 1.5,-2 0.828,0 1.5,0.895 1.5,2 z"
           transform="matrix(15.333333,0,0,11.5,414.99999,878.8622)"
           id="path3618" />
      </g>
    </clipPath>
    <clipPath
       id="clipPath-408241621-1">
      <g
         transform="translate(0,-1004.3622)"
         id="g3616-3">
        <path
           style="fill:#1890d0"
           inkscape:connector-curvature="0"
           d="m -24,13 c 0,1.105 -0.672,2 -1.5,2 -0.828,0 -1.5,-0.895 -1.5,-2 0,-1.105 0.672,-2 1.5,-2 0.828,0 1.5,0.895 1.5,2 z"
           transform="matrix(15.333333,0,0,11.5,414.99999,878.8622)"
           id="path3618-3" />
      </g>
    </clipPath>
  </defs>
  <sodipodi:namedview
     pagecolor="#ffffff"
     bordercolor="#666666"
     borderopacity="1"
     objecttolerance="10"
     gridtolerance="10"
     guidetolerance="10"
     inkscape:pageopacity="0"
     inkscape:pageshadow="2"
     inkscape:window-width="1366"
     inkscape:window-height="747"
     id="namedview6"
     showgrid="true"
     inkscape:zoom="32"
     inkscape:cx="5.5325277"
     inkscape:cy="7.0450019"
     inkscape:window-x="0"
     inkscape:window-y="21"
     inkscape:window-maximized="1"
     inkscape:current-layer="svg2">
    <inkscape:grid
       type="xygrid"
       id="grid4138" />
  </sodipodi:namedview>
  <path
     style="fill:#c28e5c"
     d="M 5,2 3,5 7.5,5 7.5,2 Z M 8.5,2 8.5,5 13,5 11,2 Z M 3,6 l 0,7 5.9492188,0 c -0.033612,-0.12237 -0.0625,-0.245939 -0.0625,-0.378906 C 8.8867187,10.632551 10.51927,9 12.507812,9 12.676283,9 12.837407,9.0281327 13,9.0507812 L 13,6 Z"
     id="path4"
     inkscape:connector-curvature="0"
     sodipodi:nodetypes="cccccccccccccssccc" />
  <g
     id="g4161"
     transform="matrix(1.3636364,0,0,1.3636364,-11.979052,-40.624999)"
     style="fill:#3370d0;fill-opacity:1">
    <g
       style="fill:#3370d0;fill-opacity:1"
       id="g3628"
       transform="matrix(0.34782609,0,0,0.34782609,2.6435901,2.6456559)" />
    <g
       transform="matrix(0.49988464,0,0,0.49988464,-37.411065,7.9950011)"
       clip-path="url(#clipPath-408241621)"
       id="g3650"
       style="fill:#3370d0;fill-opacity:1">
      <!-- color: #004794 -->
      <g
         id="g3652"
         style="fill:#3370d0;fill-opacity:1" />
    </g>
  </g>
  <g
     id="g4161-9"
     transform="matrix(1.3636364,0,0,1.3636364,-11.979052,-40.625)"
     style="fill:#4db147;fill-opacity:1;stroke:#000000;stroke-width:4.4000001;stroke-miterlimit:4;stroke-dasharray:none;stroke-opacity:1">
    <g
       style="fill:#4db147;fill-opacity:1;stroke:#000000;stroke-width:12.64999962;stroke-miterlimit:4;stroke-dasharray:none;stroke-opacity:1"
       id="g3628-2"
       transform="matrix(0.34782609,0,0,0.34782609,2.6435901,2.6456559)" />
    <g
       transform="matrix(0.49988464,0,0,0.49988464,-37.411065,7.9950011)"
       clip-path="url(#clipPath-408241621-1)"
       id="g3650-2"
       style="fill:#4db147;fill-opacity:1;stroke:#000000;stroke-width:8.80203056;stroke-miterlimit:4;stroke-dasharray:none;stroke-opacity:1">
      <!-- color: #004794 -->
      <g
         id="g3652-0"
         style="fill:#4db147;fill-opacity:1;stroke:#000000;stroke-width:8.80203056;stroke-miterlimit:4;stroke-dasharray:none;stroke-opacity:1" />
    </g>
  </g>
  <path
     inkscape:connector-curvature="0"
     style="fill:#54cdee;fill-opacity:1;fill-rule:evenodd"
     d="m 15.130135,12.621858 c 0,-1.448552 -1.172028,-2.6218583 -2.621861,-2.6218583 -1.448552,0 -2.6218597,1.1733063 -2.6218597,2.6218583 0,0.400064 0.088334,0.775804 0.2457987,1.116338 l -0.9831961,0.9832 c -0.4653559,0.462153 -0.4653559,0.466635 0,0.931989 0.4621536,0.462153 0.4666345,0.462153 0.9319891,0 l 0.901265,-0.901266 c 0.432709,0.307889 0.955673,0.491598 1.526003,0.491598 1.449833,0 2.621861,-1.173306 2.621861,-2.621859 z m -1.31093,-0.04097 c 0.01088,0.354616 -0.122261,0.698992 -0.369339,0.953752 -0.247079,0.254762 -0.586975,0.398144 -0.941592,0.398144 -0.723956,0 -1.31029,-0.586974 -1.31029,-1.310931 0,-0.723955 0.586334,-1.310929 1.31029,-1.310929 0.707954,-6.33e-4 1.288526,0.562011 1.310931,1.269964 z"
     id="path4159" />
</svg>

<svg xmlns="http://www.w3.org/2000/svg" viewBox="0 0 16 16">
 <path d="m 5 2 -2 3 4.5 0 0 -3 m 1 0 0 3 4.5 0 -2 -3 m -8 4 l 0 7 5.949 0 c -0.034 -0.122 -0.063 -0.246 -0.063 -0.379 c 0 -1.989 1.633 -3.621 3.621 -3.621 0.168 0 0.33 0.028 0.492 0.051 l 0 -3.051" style="fill:#c28e5c"/>
 <g transform="matrix(1.3636364,0,0,1.3636364,-11.979052,-40.624999)" style="fill:#3370d0;fill-opacity:1">
  <g transform="matrix(0.49988464,0,0,0.49988464,-37.411065,7.9950011)">
   <!-- color: #004794 -->
  </g>
 </g>
 <g transform="matrix(1.3636364,0,0,1.3636364,-11.979052,-40.625)" style="stroke-dasharray:none;stroke-opacity:1;fill:#4db147;stroke-miterlimit:4;fill-opacity:1;stroke:#000;stroke-width:4.4">
  <g transform="matrix(0.49988464,0,0,0.49988464,-37.411065,7.9950011)" style="stroke:#000;stroke-width:8.802">
   <!-- color: #004794 -->
  </g>
 </g>
 <path d="m 15.13 12.622 c 0 -1.449 -1.172 -2.622 -2.622 -2.622 -1.449 0 -2.622 1.173 -2.622 2.622 0 0.4 0.088 0.776 0.246 1.116 l -0.983 0.983 c -0.465 0.462 -0.465 0.467 0 0.932 0.462 0.462 0.467 0.462 0.932 0 l 0.901 -0.901 c 0.433 0.308 0.956 0.492 1.526 0.492 1.45 0 2.622 -1.173 2.622 -2.622 z m -1.311 -0.041 c 0.011 0.355 -0.122 0.699 -0.369 0.954 -0.247 0.255 -0.587 0.398 -0.942 0.398 -0.724 0 -1.31 -0.587 -1.31 -1.311 0 -0.724 0.586 -1.311 1.31 -1.311 0.708 -0.001 1.289 0.562 1.311 1.27 z" style="fill:#54cdee;fill-opacity:1;fill-rule:evenodd"/>
</svg>
